assets/icons/utility/right_align_text.svg

<?xml version="1.0"?><svg xmlns="http://www.w3.org/2000/svg" width="52" height="52" viewBox="0 0 52 52"><path fill="#fff" d="m46.5 5h-41c-0.8 0-1.5 0.7-1.5 1.5v3c0 0.8 0.7 1.5 1.5 1.5h41c0.8 0 1.5-0.7 1.5-1.5v-3c0-0.8-0.7-1.5-1.5-1.5z m0 12h-33c-0.8 0-1.5 0.7-1.5 1.5v3c0 0.8 0.7 1.5 1.5 1.5h33c0.8 0 1.5-0.7 1.5-1.5v-3c0-0.8-0.7-1.5-1.5-1.5z m0 24h-33c-0.8 0-1.5 0.7-1.5 1.5v3c0 0.8 0.7 1.5 1.5 1.5h33c0.8 0 1.5-0.7 1.5-1.5v-3c0-0.8-0.7-1.5-1.5-1.5z m0-12h-41c-0.8 0-1.5 0.7-1.5 1.5v3c0 0.8 0.7 1.5 1.5 1.5h41c0.8 0 1.5-0.7 1.5-1.5v-3c0-0.8-0.7-1.5-1.5-1.5z"></path></svg>

<svg xmlns="http://www.w3.org/2000/svg" x="0px" y="0px"
	 width="52px" height="52px" viewBox="0 0 52 52" enable-background="new 0 0 52 52" xml:space="preserve">
<path fill="#FFFFFF" d="M46.5,5h-41C4.7,5,4,5.7,4,6.5v3C4,10.3,4.7,11,5.5,11h41c0.8,0,1.5-0.7,1.5-1.5v-3C48,5.7,47.3,5,46.5,5z"
	/>
<path fill="#FFFFFF" d="M46.5,17h-33c-0.8,0-1.5,0.7-1.5,1.5v3c0,0.8,0.7,1.5,1.5,1.5h33c0.8,0,1.5-0.7,1.5-1.5v-3
	C48,17.7,47.3,17,46.5,17z"/>
<path fill="#FFFFFF" d="M46.5,41h-33c-0.8,0-1.5,0.7-1.5,1.5v3c0,0.8,0.7,1.5,1.5,1.5h33c0.8,0,1.5-0.7,1.5-1.5v-3
	C48,41.7,47.3,41,46.5,41z"/>
<path fill="#FFFFFF" d="M46.5,29h-41C4.7,29,4,29.7,4,30.5v3C4,34.3,4.7,35,5.5,35h41c0.8,0,1.5-0.7,1.5-1.5v-3
	C48,29.7,47.3,29,46.5,29z"/>
</svg>
